tools/download-figma-icons/icons/solid/paperplane.svg

<svg width="24" height="24" viewBox="0 0 24 24" fill="none" xmlns="http://www.w3.org/2000/svg">
<path fill-rule="evenodd" clip-rule="evenodd" d="M23.6766 1.67197C23.4576 1.49047 23.1553 1.44997 22.8958 1.56322L0.447573 11.4542C0.167823 11.5772 -0.00842674 11.8577 0.000573257 12.1637C0.00957326 12.469 0.203823 12.7382 0.491073 12.844L3.31632 13.8865C3.50457 13.9562 3.71457 13.9472 3.89607 13.8602L14.7013 8.74222L8.13357 14.3515C7.96857 14.494 7.87257 14.6995 7.87107 14.9177L7.82982 21.4637C7.82832 21.7562 7.99707 22.024 8.26257 22.1477C8.36382 22.1942 8.47257 22.2182 8.57982 22.2182C8.75457 22.2182 8.92707 22.1567 9.06582 22.0397L14.0458 17.8127L19.0933 19.597C19.2928 19.6697 19.5171 19.6525 19.7031 19.5482C19.8906 19.4455 20.0256 19.2677 20.0736 19.06L23.9293 2.41897C23.9931 2.14222 23.8956 1.85347 23.6766 1.67197Z" fill="black"/>
</svg>

<svg width="24" height="24" viewBox="0 0 24 24" fill="none" xmlns="http://www.w3.org/2000/svg"><path fill-rule="evenodd" clip-rule="evenodd" d="M23.677 1.672a.752.752 0 0 0-.781-.109L.448 11.454a.75.75 0 0 0 .043 1.39l2.825 1.043c.189.07.399.06.58-.027l10.805-5.118-6.567 5.61a.754.754 0 0 0-.263.566l-.041 6.546a.75.75 0 0 0 1.236.576l4.98-4.227 5.047 1.784a.75.75 0 0 0 .98-.537L23.93 2.419a.75.75 0 0 0-.252-.747Z" fill="currentColor"/></svg>
